!!!COM: Beethoven, Ludwig van
!!!CDT: 1770///-1827///
!!!OTL: Piano Sonata no. 7 in D major
!!!OPS: 10
!!!ONM: 3
!!!OMV: 4
!!!OMD: Rondo: Allegro
**kern	**kern	**dynam
*staff2	*staff1	*staff1/2
*Ipiano	*Ipiano	*Ipiano
*clefF4	*clefG2	*
*k[f#c#]	*k[f#c#]	*
*D:	*D:	*
*M4/4	*M4/4	*
*MM120	*MM120	*
*	*^	*
(8D/	(8f#	(8A [8d	p
=1	=1	=1	=1
8BBL	8gL	4B 4d])	.
8GGJ)	8bJ)	.	.
4r	4r	4ryy	.
4r	4r	4ryy	.
8r	8r	8ryy	.
(8D/	(8f#	(8A [8d	.
=2	=2	=2	=2
8BBL	8gL	4B 4d])	.
8GGJ)	8bJ)	.	.
4r	4r	4ryy	.
4r	4r	4ryy	.
*clefG2	*	*	*
8r	8r	4ryy	<
(8g	(8b	.	.
*	*v	*v	*
=3	=3	=3
*^	*	*
4f#	4f#	8aL	.
.	.	8dd	.
4g	4e	8cc#	.
.	.	8ggJ	.
4f#	4d	8ff#L	.
.	.	8bb	.
[4a	(4c# [>4e)	8aa	.
.	.	[8eeeJ)	f
=4	=4	=4	=4
*	*	*^	*
4a]	2B [2d 2e_)	(16eeeLL]	4ryy	>
.	.	16ddd	.	.
.	.	16ccc#	.	.
.	.	16bbJJ	.	.
[4g#	.	16aaLL	4ryy	.
.	.	16gg#	.	.
.	.	16ddd	.	.
.	.	16gg#JJ)	.	.
[4A; 4d;] 4e;] (>4g#;]	4ryy	4bb;	4ryy	]
.	.	(16qccc#LL>	.	.
.	.	16qbb	.	.
.	.	16qaa#JJ	.	.
.	.	8qbbL	.	.
.	.	8qccc#J	.	.
8A;] 8c# 8e 8a)	4ryy	8aan;)	8ryy	p
*clefF4	*clefF4	*	*	*
(8D/	.	(8f#	8A [8d	pp
*v	*v	*	*	*
!!LO:LB:g=original
=5	=5	=5	=5
8BBL	8gL	4B 4d]	pp
8GGJ)	8bJ)	.	.
8r	8r	8r	.
(8F#	(8a#	(8c# [8f#	.
8DL<	8bL	4d 4f#])	.
8BBJ)	8ddJ)	.	.
8r	8r	8r	.
(8A	(8cc#	(8e [8an	.
=6	=6	=6	=6
*^	*	*	*
4.ryy	8F#L	8ddL	4f#) 4a]	.
.	8DJ)	8ff#J)	.	.
.	8r	8r	2ryy	.
(8G	8GG	(</8b	.	p
4F#	2AA	4d)	.	.
.	.	(<f#8q/	.	!.
4G)	.	8.eL)	4c#	.
.	.	16dJk	.	.
*	*	*v	*v	*
=7	=7	=7	=7
4F#	4BB	4d	.
4r	4ryy	4r	.
4r	4ryy	4r	.
*v	*v	*	*
*clefG2	*	*
*^	*	*
8r	4ryy	8r	.
(8a/ 8ccn/	.	8dd# (8ff#	ff
=8	=8	=8	=8
*	*	*^	*
8g 8bL	4.ryy	8ee 8ggL	2.ryy	.
8e 8gJ)	.	8gg 8bbJ)	.	.
8r	.	8r	.	.
*v	*v	*	*	*
*clefF4	*	*	*
*^	*	*	*
(8G	8GG	(8b/	.	p
4F#	2AA	4d)	.	.
.	.	(<f#8q/	.	!.
4G)	.	8.eL)	4c#	.
.	.	16dJk	.	.
*v	*v	*	*	*
*	*v	*v	*
=9	=9	=9
16DDLL	4d	.
16D	.	.
16C#	.	.
16DJJ	.	.
16ELL>	4r	.
16D	.	.
16C#	.	.
16DJJ	.	.
16BBLL	4r	.
16D	.	.
16C#	.	.
16DJJ	.	.
!	!	!LO:DY:rj
16ELL>	[4g [4gg	sf
16D	.	.
16C#	.	.
16DJJ	.	.
!!LO:LB:g=original
=10	=10	=10
16AALL	8g] (8ggL]	.
16D	.	.
16C#	8f#' 8ff#'J)	.
16DJJ	.	.
16ELL>	8g' 8gg'L	.
16D	.	.
16C#	8a' 8aa'J	.
16DJJ	.	.
16GGLL	8b' 8bb'L	.
16D	.	.
16C#	8b' 8bb'J	.
16DJJ	.	.
16ELL>	8cc#' 8ccc#'L	.
16D	.	.
16C#	8dd' 8ddd'J	.
16DJJ	.	.
=11	=11	=11
16FF#LL	4dd (4ddd	.
16D	.	.
16C#	.	.
16DJJ	.	.
16ELL>	8a 8aa)	.
16D	.	.
16C#	8r	.
16DJJ	.	.
16BBLL	4r	.
16D	.	.
16C#	.	.
16DJJ	.	.
!	!	!LO:DY:rj
16ELL>	[4G [4g	sf
16D	.	.
16C#	.	.
16DJJ	.	.
=12	=12	=12
16AALL	(8G] 8gL]	.
16D	.	.
16C#	8F#') 8f#'J	.
16DJJ	.	.
16ELL>	8G' 8g'L	.
16D	.	.
16C#	8A' 8a'J	.
16DJJ	.	.
16GGLL	8A#' 8a#'L	.
16D	.	.
16C#	8B' 8b'J	.
16DJJ	.	.
16ELL>	8c#' 8cc#'L	.
16D	.	.
16C#	8d' 8dd'J	.
16DJJ	.	.
!!LO:LB:g=original
=13	=13	=13
*^	*	*
16FF#LL	2ryy	4d (>4dd	.
(16D	.	.	.
16C#	.	.	.
16DJJ	.	.	.
16ELL>	.	8an)	.
16D	.	.	.
16C#)	.	8r	.
16DJJ	.	.	.
*v	*v	*	*
*clefG2	*	*
*^	*	*
4rdd	2B [2d	16r	<
.	.	(16dddLL	.
.	.	16ccc#	.
.	.	16dddJJ	.
!	!	!	!LO:DY:rj:a=2
[4g	.	16eeeLL	sf
.	.	16ddd	.
.	.	16ccc#	.
.	.	16dddJJ)	.
=14	=14	=14	=14
(8gL]	2A 2d]	16r	.
.	.	(16dddLL	.
8f#	.	16ccc#	.
.	.	16dddJJ	.
8g	.	16eeeLL	.
.	.	16ddd	.
8aJ	.	16ccc#	.
.	.	16dddJJ)	.
8a#L	2g	16r	.
.	.	(16dddLL	.
8b	.	16ccc#	.
.	.	16dddJJ	.
8cc#	.	16eeeLL	.
.	.	16ddd	.
8ddJ)	.	16ccc#	.
.	.	16dddJJ)	.
=15	=15	=15	=15
(4dd	2f#	16r	sf
.	.	(16dddLL	.
.	.	16ccc#	.
.	.	16dddJJ	.
8an)	.	16eeeLL	.
.	.	16ddd	.
8r	.	16ccc#	.
.	.	16dddJJ)	.
16rff	2fn	16r	.
(16aLL	.	(16aaLL	f
16g#	.	16gg#	.
16aJJ	.	16aaJJ	.
16bLL	.	16bbLL	.
16a	.	16aa	.
16g#	.	16gg#	.
16aJJ)	.	16aaJJ)	.
*v	*v	*	*
!!LO:LB:g=original
=16	=16	=16
4e 4g#	(16gg#LL	fp
.	16ddd	.
.	16ccc#	.
.	16bbJJ	.
4r	16aaLL	.
.	16gg#	.
.	16ff#	.
.	16eeJJ)	.
2r	12dd'L	.
.	12cc#'	.
.	12b'J	.
.	12a'L	.
.	12g#'	.
.	12f#'J	.
*clefF4	*	*
=17	=17	=17
8r	[4e	.
8dL	.	.
8dJ	(16eLL]	.
.	16fn	.
8r	16f#	.
.	16gJJ)	.
8r	[4g#	.
8d 8eL	.	.
8d 8eJ	(16g#LL]	.
.	16a	.
8r	16a#	.
.	16bJJ)	.
=18	=18	=18
8r	(16b#LL	.
.	16cc#	.
8c# 8eL	16dd	.
.	16dd#JJ	.
8c# 8eJ	16eeLL	<
.	16ffn	.
8r	16ff#	.
.	16ggnJJ	.
2r	16gg#LL	.
.	16aa	.
.	16aa#	.
.	16bbJJ	.
.	16cccnLL	.
.	16ccc#	.
.	16ddd	.
.	16ddd#JJ)	.
!!LO:LB:g=original
=19	=19	=19
8r	[4eeez	.
8D 8E 8BL	.	.
8D 8E 8BJ	16eeeLL]	.
.	(16ddd#	.
8r	16dddn	.
.	16ccc#JJ)	.
8r	[4bbz	.
8D 8E 8BL	.	.
8D 8E 8BJ	(16bbLL]	.
.	16ccc#	.
8r	16ddd	.
.	16gg#JJ	.
=20	=20	=20
8r	[4aa)z	.
8C# 8E 8AL	.	.
8C# 8E 8AJ	(16aaLL]	.
.	16bb#	.
8r	16ccc#	.
.	16dd#JJ)	.
2r	(16eeLL	.
.	16gg#	.
.	16aa	.
.	16eeJJ	.
.	16ddnLL	.
.	16cc#	.
.	16b	.
.	16aJJ)	.
=21	=21	=21
8r	[4e	p
8dL	.	.
8dJ	(16eLL]	.
.	16fn	.
8r	16f#	.
.	16gnJJ)	.
8r	[4g#	.
8d 8eL	.	.
8d 8eJ	(16g#LL]	.
.	16a	.
8r	16a#	.
.	16bJJ)	.
!!LO:LB:g=original
=22	=22	=22
8r	(16b#LL	.
.	16cc#X	.
8c# 8eL	16dd	.
.	16dd#JJ	.
8c# 8eJ	16eeLL	.
.	16ffn	<
8r	16ff#	.
.	16ggnJJ	.
2r	16gg#LL	.
.	16aa	.
.	16aa#	.
.	16bbJJ	.
.	16cccnLL	.
.	16ccc#	.
.	16ddd	.
.	16ddd#JJ)	.
=23	=23	=23
[1CC# [1AA	(4.eee	ff
.	16dddnLL	.
.	16ccc#JJ	.
.	16bbLL	.
.	16aa	.
.	16gg#	.
.	16aaJJ	.
.	16ff#LL	.
.	16ggn	.
.	16ee	.
.	16cc#JJ)	.
=24	=24	=24
*	*^	*
2CC#_ 2AA_	[2gn	2ryy	sf
4.CC#;] 4.AA;]	4.g;]	4.ryy	.
(8D/	(8f#	(8A [8d	p
=25	=25	=25	=25
8BBL	8gL	4B) 4d]	.
8GGJ)	8bJ)	.	.
4r	4r	4ryy	.
4r	4r	4ryy	.
8r	8r	8ryy	.
(8D/	(8f#	(8A [8d	p
!!LO:LB:g=original
=26	=26	=26	=26
*^	*	*	*
8BBL	2.ryy	8gL	4B) 4d]	.
8GGJ)	.	8bJ)	.	.
4r	.	4r	2.ryy	.
4r	.	4r	.	.
*v	*v	*	*	*
*clefG2	*	*	*
*^	*	*	*
8r	8ryy	8r	.	.
8g	(8g	(8b	.	.
*	*	*v	*v	*
=27	=27	=27	=27
4f#	4f#	8aL	<
.	.	8dd	.
4g	4e	8cc#	.
.	.	8ggJ	.
4f#	4d	8ff#L	.
.	.	8bb	.
[4a	4c# [>4e)	8aa	.
.	.	[8eeeJ)	f
=28	=28	=28	=28
4a]	2B [2d 2e_	(16eeeLL]	>
.	.	16ddd	.
.	.	16ccc#	.
.	.	16bbJJ	.
[4g#	.	16aaLL	.
.	.	16gg#	.
.	.	16ddd	.
.	.	16gg#JJ)	.
*v	*v	*	*
(>4g#;] [4A 4d] 4e]	4bb;	] p
.	(16qccc#LL	.
.	16qbb	.
.	16qaa#JJ	.
.	8qbbL	.
.	8qccc#J	.
8e 8a 8A] 8c#)	8aan;)	.
*clefF4	*	*
*	*^	*
(8D/	(8f#	(8A [8d	.
=29	=29	=29	=29
8BBL)	8gL	4B) 4d]	pp
8GGJ	8bJ)	.	.
8r	8r	8ryy	.
(8F#	(8a#	(8c# [8f#	<
8DL<	8bL	4d) 4f#]	.
8BBJ)	8ddJ)	.	.
8r	8r	8ryy	.
(8A	(8cc#	(8e [8an	.
!!LO:LB:g=original
=30	=30	=30	=30
*^	*	*	*
4.ryy	8F#L	8ddL	4f#) 4a]	.
.	8DJ)	8ff#J)	.	.
.	8r	8r	2ryy	.
8G	8GG	(</8b	.	p
(4F#	2AA	4d)	.	.
.	.	(<f#8q/	.	.
4G)	.	8.eL)	4c#	.
.	.	16dJk	.	.
*	*	*v	*v	*
=31	=31	=31	=31
4F#	4BB	4d	.
4r	2.ryy	4r	.
4r	.	4r	.
*clefG2	*clefG2	*	*
8r	.	8r	.
(8a/ 8ccn/	.	8dd# (8ff#	ff
=32	=32	=32	=32
*	*	*^	*
8g 8bL	4.ryy	8ee 8ggL	2.ryy	.
8e 8gJ)	.	8gg 8bbJ)	.	.
8r	.	8r	.	.
*clefF4	*clefF4	*	*	*
(8G	8GG	(8b/	.	p
4F#	2AA	4d)	.	.
.	.	(<f#8q/	.	.
4G)	.	8.eL)	4c#	.
.	.	16dJk	.	.
=33	=33	=33	=33	=33
*	*	*	*	*^
!	!	!	!	!	!LO:DY:rj
[<1BB-	4.BBB-	2ryy	[2D< [2Fn< [2B-< [2d	ff	f
*	*	*	*	*v	*v
.	(8AAA	.	.	.
.	8BBB-L	8ryy	8D<] 8F<] 8B-<] 8d]	.
.	8DDJ)	(8fnL	4.F<	.
.	8rCC	8d	.	.
.	(8AAA	8B-J)	.	.
=34	=34	=34	=34	=34
2BB-_<	8BBB-L	8r	8ryy	.
!	!	!	!	!LO:DY:rj
.	8DDJ)	(8ddL	4.d	sf
.	8r	8b-	.	.
.	(8AAA	8fnJ)	.	.
4.BB-]	8BBB-L	8r	8ryy	.
!	!	!	!	!LO:DY:rj
.	8DDJ)	(8ffnL	4.f	sf
.	8r	8dd	.	.
(<8AA	8AA	8b-J)	.	.
*v	*v	*	*	*
*	*v	*v	*
!!LO:LB:g=original
=35||	=35||	=35||
*k[]	*k[]	*
16BB-LL)	8r	.
16F	.	.
16D	4fffz	.
16FJJ	.	.
16BB-LL	.	.
16F	.	.
16D	(16dddLL	.
16FJJ	16bb-JJ)	.
16BB-LL	8ff'L	.
16F	.	.
16D	8dd'J	.
16FJJ	.	.
16BB-LL	8b-'L	.
16F	.	.
16D	8f'J	.
16FJJ	.	.
=36	=36	=36
16CLL	8d'L	.
16F	.	.
16E-	8B-'	.
16FJJ	.	.
16CLL	8A'	.
16F	.	.
16E-	8a'J	.
16FJJ	.	.
16AALL<	8c'L	.
16F	.	.
16C	8cc'	.
16FJJ	.	.
16AALL<	8e-'	.
16F	.	.
16C	8ee-'J	.
16FJJ	.	.
=37	=37	=37
16BB-LL	8dd'	.
16D	.	.
16GG	4dddz	.
16DJJ	.	.
16BB-LL	.	.
16D	.	.
16GG	(16bb-LL	.
16DJJ	16ggJJ)	.
16BB-LL	8dd'L	.
16D	.	.
16GG	8b-'J	.
16DJJ	.	.
16BB-LL	8g'L	.
16D	.	.
16GG	8d'J	.
16DJJ	.	.
!!LO:LB:g=original
=38	=38	=38
16AALL	8B-'L	.
16D	.	.
16C	8G'	.
16DJJ	.	.
16AALL	8F#'	.
16D	.	.
16C	8f#'J	.
16DJJ	.	.
16FF#LL	8A'L	.
16D	.	.
16AA	8a'	.
16DJJ	.	.
16FF#LL	8c'	.
16D	.	.
16AA	8cc'J	.
16DJJ	.	.
=39	=39	=39
16GGLL	8b-'	.
16BB-	.	.
16EE-	4bb-z	.
16BB-JJ	.	.
16GGLL	.	.
16BB-	.	.
16EE-	(16ggLL	.
16BB-JJ	16ee-JJ)	.
16GGLL	8b-'L	.
16BB-	.	.
16EE-	8g'J	.
16BB-JJ	.	.
16GGLL	8e-'L	.
16BB-	.	.
16EE-	8B-'J	.
16BB-JJ	.	.
=40	=40	=40
16FFLL	8G'L	.
16BB-	.	.
16AA-	8E-'	.
16BB-JJ	.	.
16FFLL	8D'	.
16BB-	.	.
16AA-	8d'J	.
16BB-JJ	.	.
16DDLL	8F'L	.
16BB-	.	.
16FF	8f'	.
16BB-JJ	.	.
16DDLL	8A-'	.
16BB-	.	.
16FF	8a-'J	.
16BB-JJ	.	.
!!LO:LB:g=original
=41	=41	=41
(<[4EE-	8r	.
.	([8E-	.
16EE-LL]	16E-LL]	.
16GG	16G	.
16BB-	16B-	.
16AA-JJ	16A-JJ	.
16GGLL	16GLL	.
16BB-	16B-	.
16E-	16e-	.
16DJJ	16dJJ	.
16E-LL>	16e-LL	.
16BB-	16B-	.
16G	16g)	.
16FJJ)	16fJJ	.
=42	=42	=42
(16E-LL	(16e-LL	.
16G	16g	.
16B-	16b-	.
16A-JJ	16a-JJ	.
16GLL	16gLL	.
16B-	16b-	.
16e-	16ee-	.
16dJJ	16ddJJ	.
*clefG2	*	*
16e-XLL	16ee-LL	.
16B-X	16b-	.
16g	16gg	.
16fJJ	16ffJJ	.
16e-LL	16ee-LL	.
16g	16gg	.
16b-	16bb-	.
16a-JJ)	16aa-JJ)	.
=43	=43	=43
16gLL	(16ggLL	.
(16e-	16ee-	.
16b-	16bb-	.
16a-JJ	16aa-JJ	>
16gLL	16ggLL	.
16e-	16ee-	.
16b-	16bb-	.
16a-JJ	16aa-JJ	.
16gLL	16ggLL	.
16e-	16ee-	.
16b-	16bb-	.
16a-JJ	16aa-JJ	.
16gLL	16ggLL	.
16e-	16ee-	.
16b-	16bb-	.
16a-JJ)	16aa-JJ)	.
!!LO:LB:g=original
=44	=44	=44
(16gLL	(16ggLL	.
16en	16dd-	.
16b-	16ddd-	.
16a-JJ	16cccJJ	.
16gLL	16bbLL	.
16e	16dd-	.
16b-	16ddd-	.
16a-JJ	16cccJJ	.
16gLL	16bbLL	.
16e	16dd-	.
16b-	16ddd-	.
16a-JJ	16cccJJ	.
16gLL	16bbLL	.
16e	16dd-	.
16b-	16ddd-	.
16a-JJ)	16cccJJ)	.
=45	=45	=45
*	*^	*
[2e [2g	[2bb-	2.ryy	pp
4.e;] 4.g;]	4.bb-;]	.	.
.	.	8ryy	.
*clefF4	*	*	*
(8F	(8an	(8c [8f	pp
=46	=46	=46	=46
8DL	8b-L	4d 4f])	.
8BB-J)	8ddJ)	.	.
4r	4r	2ryy	.
4r	4r	.	.
8r	8r	8ryy	.
(8F	(8a	(8c [8f	.
=47	=47	=47	=47
8DL	8b-L	4d) 4f]	.
8BB-J)	8ddJ)	.	.
4r	4r	2.ryy	.
4r	4r	.	.
*clefG2	*	*	*
8r	8r	.	.
(8b-/	(8dd	.	.
*	*v	*v	*
=48	=48	=48
4a	8ccL	<
.	8ff	.
4g 4b-	8ee	.
.	8bb-J	.
4f 4a	8aa	.
.	4dd; (4ddd;)	[ sf
4e;z 4g;z)	.	.
.	8cc# 8ccc#)	.
!!LO:LB:g=original
=49	=49	=49
2r	2r	.
4r	4r	.
*clefF4	*clefF4	*
8r	8r	.
(8BBB-	(8BB-	p
=50	=50	=50
8AAAL	8AAL	.
8DD	8D	.
8CC#	8C#	.
8GGJ	8GJ	.
8FFL	8FL	.
8BB-	8B-	.
8AA	8A	.
8DJ)	8dJ)	.
*	*clefG2	*
=51	=51	=51
(8C#L	(8c#L	.
8G	8g	.
8F	8f	.
8B-J	8b-J	.
8AL	8aL	.
8d	8dd	.
8c#	8cc#	.
8gJ	8ggJ	.
=52	=52	=52
8f#L	8ff#L	.
8A	8a	.
8G#	8g#	.
8fnJ	8ffnJ	.
8eL	8eeL	.
8Gn	8gn	.
8F#	8f#	.
8e-J	8ee-J	.
=53	=53	=53
8dL	8ddL	.
8Fn	8fn	.
8E	8e	.
8c#J	8cc#J	.
8E-L	8e-L	<
8cn	8ccn	.
8D	8d	.
8BnJ	8bnJ	.
=54	=54	=54
8C#L	8c#L	.
8B-	8b-	.
8Cn	8cn	.
8AJ	8aJ	.
8BBnL	8BnL	.
8G#	8g#	.
8BB-	8B-	.
8D 8GnJ)	8d 8gnJ)	.
!!LO:LB:g=original
=55	=55	=55
[2AA [2E [2G	[2A 2d [2g	sfp
4.AA;] 4.E;] 4.G;]	4.A;] 4.c#; 4.g;]	.
=||	=||	=||
*k[f#c#]	*k[f#c#]	*
*	*^	*
!	!	!	!LO:DY:rj
(8D/	(8f#	8A [8d	p
=56	=56	=56	=56
8BBnL	8gL	4B 4d]	.
8GGJ)	8bnJ)	.	.
4r	4r	2ryy	.
4r	4r	.	.
8r	8r	8ryy	.
(8D/	(8f#	8A [8d	.
=57	=57	=57	=57
8BBL	8gL	4B 4d]	.
8FF#	8bJ)	.	.
8GG	8r	2.ryy	.
8BBJ)	(8ff#	.	.
4r	8ggL	.	.
.	8bbJ)	.	.
8r	8r	.	.
(8g	(8b	.	<
*	*v	*v	*
=58	=58	=58
8f#L	8aL	.
8F#	8dd	.
8e	8cc#	.
8EJ	8ggJ	.
8dL	8ff#L	.
8D	8bb	.
8c#	8aa	.
8C#J)	[8eeeJ)	.
=59	=59	=59
*^	*^	*
*^	*	*	*	*
4re	8rF	2BB\	4ryy	(16eeeLL]	f
.	.	.	.	16ddd	>
!	!LO:N:vis=4.	!	!	!	!
.	[[<8D/	.	.	16ccc#	.
.	.	.	.	16bbJJ	.
!LO:N:vis=4	!	!	!	!	!
[[<8E/	8rc	.	4ryy	16aaLL	.
.	.	.	.	16gg#	.
*v	*v	*	*	*	*
[<8G#	.	.	16ddd	.
.	.	.	16gg#JJ)	.
4E;]] (4G#;]	4D]] [4AA	4ryy	4bb;>	] p
.	.	.	(16qccc#LL	.
.	.	.	16qbb	.
.	.	.	16qaa#	.
.	.	.	16qbbJJ	.
.	.	.	8qbbL	.
.	.	.	8qccc#J	.
8C#; 8E; 8A;)	8AA]	8ryy	8aan;>)	.
(8D/	8ryy	(8f#	8A [8d	pp
*v	*v	*	*	*
!!LO:LB:g=original
=60	=60	=60	=60
8BBL	8gL	4B 4d]	.
8FF#	8bJ)	.	.
8GG	2.ryy	8r	.
8BBJ)	.	(8A# 8a#	<
8r	.	8B 8bL	.
(8AA#X	.	8d) 8ddJ	.
8BBL	.	8r	.
8DJ)	.	(8c# 8cc#	.
=61	=61	=61	=61
*^	*	*	*
8r	2ryy	8d 8ddL	2.ryy	.
(8C#L	.	8f#) 8ff#J	.	.
8D	.	8r	.	.
8GG) 8GJ	.	(8b/	.	.
(4F#	2AA	4d)	.	p
.	.	(<f#8q/	.	!.
4G)	.	8.eL)	4c#	.
.	.	16dJk	.	.
*	*	*v	*v	*
=62	=62	=62	=62
4F#	4BB	4d	.
4r	2.ryy	4r	.
4r	.	4r	.
*clefG2	*clefG2	*	*
8r	.	8r	.
(8a/ 8ccn/	.	8dd# (8ff#	ff
=63	=63	=63	=63
*	*	*^	*
8g 8bL	4.ryy	8ee 8ggL	2.ryy	.
8e 8gJ)	.	8gg 8bbJ)	.	.
8r	.	8r	.	.
*clefF4	*clefF4	*	*	*
8G	8GG	(8b/	.	p
(4F#	2AA	4d)	.	.
.	.	(<f#8q/	.	.
4G)	.	(8.eL)	4c#	.
.	.	16dJk)	.	.
*v	*v	*	*	*
*	*v	*v	*
!!LO:LB:g=original
=64	=64	=64
16DDLL	4d	f
16D	.	.
16C#	.	.
16DJJ	.	.
16ELL>	4r	.
16D	.	.
16C#	.	.
16DJJ	.	.
16BBLL	4r	.
16D	.	.
16C#	.	.
16DJJ	.	.
!	!	!LO:DY:rj
16ELL>	[4g [4gg	sf
16D	.	.
16C#	.	.
16DJJ	.	.
=65	=65	=65
16AALL	8g] (8ggL]	.
16D	.	.
16C#	8f# 8ff#)	.
16DJJ	.	.
16ELL>	8g' 8gg'	.
16D	.	.
16C#	8a' 8aa'J	.
16DJJ	.	.
16GGLL	8b' 8bb'L	.
16D	.	.
16C#	8b' 8bb'	.
16DJJ	.	.
16ELL>	8cc#' 8ccc#'	.
16D	.	.
16C#	8dd' 8ddd'J	.
16DJJ	.	.
=66	=66	=66
16FF#LL	4dd (4ddd	.
16D	.	.
16C#	.	.
16DJJ	.	.
16ELL>	8a 8aa)	.
16D	.	.
16C#	8r	.
16DJJ	.	.
16BBLL	4r	.
16D	.	.
16C#	.	.
16DJJ	.	.
!	!	!LO:DY:rj
16ELL>	[4G [4g	sf
16D	.	.
16C#	.	.
16DJJ	.	.
!!LO:LB:g=original
=67	=67	=67
16AALL	(8G] 8gL]	.
16D	.	.
16C#	8F#) 8f#J	.
16DJJ	.	.
16ELL>	8G' 8g'L	.
16D	.	.
16C#	8A' 8a'J	.
16DJJ	.	.
16FF#LL	8A#' 8a#'L	.
16D	.	.
16C#	8B' 8b'J	.
16DJJ	.	.
16ELL>	8d' 8dd'L	.
16D	.	.
16C#	8cn' 8ccn'J	.
16DJJ	.	.
=68	=68	=68
*^	*	*
4ryy	4GG	16B 16b	.
.	.	(16ggLL	.
.	.	16ff#	.
.	.	16ggJJ	.
!LO:DY:rj	!	!	!
[2Gz	4rGG	16aaLL	.
.	.	16gg	.
.	.	16ff#	.
.	.	16ggJJ)	.
.	2E	16r	.
.	.	(16ggLL	.
.	.	16ff#	.
.	.	16ggJJ	.
!LO:DY:rj	!	!	!
4G] [4cnz	.	16aaLL	.
.	.	16gg	.
.	.	16ff#	.
.	.	16ggJJ)	.
=69	=69	=69	=69
(8cL]	2D	16r	.
.	.	(16ggLL	.
8B	.	16ff#	.
.	.	16ggJJ	.
8cn	.	16aaLL	.
.	.	16gg	.
8dJ)	.	16ff#	.
.	.	16ggJJ)	.
*v	*v	*	*
*clefG2	*	*
*^	*	*
(8d#L	2cn	16r	.
.	.	(16ggLL	.
8e	.	16ff#	.
.	.	16ggJJ	.
8f#	.	16aaLL	.
.	.	16gg	.
8gJ)	.	16ff#	.
.	.	16ggJJ)	.
!!LO:LB:g=original
=70	=70	=70	=70
(4g	2B	16r	.
.	.	(16ggLL	.
.	.	16ff#	.
.	.	16ggJJ	.
8dn)	.	16aaLL	.
.	.	16gg	.
8r	.	16ff#	.
.	.	16ggJJ)	.
4r	2e	16r	.
.	.	(16ggLL	.
.	.	16ff#	.
.	.	16ggJJ	.
!LO:DY:rj	!	!	!
[4ccnz<	.	16aaLL	.
.	.	16gg	.
.	.	16ff#	.
.	.	16ggJJ)	.
=71	=71	=71	=71
(4cc]	2d	(16ff#LL	.
.	.	16gg	.
.	.	16aa	.
.	.	16ggJJ	.
4b	.	20ff#LL	.
.	.	20gg	.
.	.	20gg#	.
.	.	20aa	.
.	.	20aa#JJ	.
4dd	2g	20bbLL	.
.	.	20cccn	.
.	.	20ccc#	.
.	.	20ddd	.
.	.	20ccc#JJ	.
4ee#)	.	16eeeLL	.
.	.	16ddd	.
.	.	16ccc#	.
.	.	16bb#JJ)	.
=72	=72	=72	=72
4ff#	[2f#	16aa#LL	.
.	.	16ccc#	.
.	.	16aa#	.
.	.	16ff#JJ	.
8r	.	16ee#LL	.
.	.	16ff#	.
(8a#	.	16ccc#	.
.	.	16ff#JJ	.
8bL	4.f#]	16dddLL	.
.	.	16bb	.
8ddJ)	.	16ff#	.
.	.	16dddJJ	.
8r	.	16ddLL	.
.	.	16bb	.
(>8e#	8ryy	16gg#	.
.	.	16ddJJ	.
!!LO:LB:g=original
=73	=73	=73	=73
8f#L	[2f#	16aa#LL	fp
.	.	16ff#	.
8F#J)	.	16cc#	.
.	.	16ff#JJ	.
8r	.	16ee#LL	.
.	.	16ff#	.
(8a#	.	16ccc#	.
.	.	16ff#JJ	.
8bL	4.f#]	16dddLL	.
.	.	16bb	.
8ddJ)	.	16ff#	.
.	.	16dddJJ	.
8r	.	16ddLL	.
.	.	16bb	.
(8e#	8ryy	16gg#	.
.	.	16ddJJ	.
*v	*v	*	*
*clefF4	*	*
=74	=74	=74
8f#L	8cc# 8aa#	.
8F#J)	8aa# 8ccc#L	.
8r	8aa# 8ccc#	.
(8E#	8aa# 8ccc#J	pp
8F#L<	8aa# 8ccc#L	.
8FF#J)	8aa# 8ccc#	.
8r	8aa# 8ccc#	.
(8EE#	8aa# 8ccc#J	.
=75	=75	=75
8FF#L	8aa# 8ccc#L	.
8FFF#J)	8aa# 8ccc#	.
4r	8aa# 8ccc#	.
.	8aa# 8ccc#J	.
4r	8aa# 8ccc#L	.
.	8aa# 8ccc#	.
*clefG2	*	*
8r	8aa# 8ccc#	.
(8ff#	8aa# 8ccc#J	.
!!LO:LB:g=original
=76	=76	=76
*	*^	*
8ggL	8aa# 8ccc#L	2r	pp
8eeJ)	8aa# 8ccc#	.	.
8r	8aa# 8ccc#	.	.
(8f#	8aa# 8ccc#J	.	.
8gL	8aa# 8ccc#L	4r	.
8eJ)	8aa# 8ccc#	.	.
8r	8aa# 8ccc#	8r	.
*clefF4	*	*	*
(8F#	8aa# 8ccc#J	(8dd#	.
=77	=77	=77	=77
8GL	8bb- 8ddd-L	8eeL	<
8EJ)	8bb- 8ddd-	8ggJ)	.
4r	8bb- 8ddd-	4r	.
.	8bb- 8ddd-J	.	.
4r	8bb- 8ddd-L	2r	.
.	8bb- 8ddd-	.	.
*clefG2	*	*	*
8r	8bb- 8ddd-	.	.
(8ee	8bb- 8ddd-J	.	.
*	*v	*v	*
=78	=78	=78
8ffnL	8bb- 8dddnL	sf
8fnJ)	8bb- 8ddd	.
8r	8bb- 8ddd	.
(8f	8bb- 8dddJ	.
8g-L	8gg- 8bb-X 8eee-L	sf
8G-J)	8gg- 8bb- 8eee-	.
8r	8gg- 8bb- 8eee-	.
*clefF4	*	*
(8G-X	8gg- 8bb- 8eee-J	.
=79	=79	=79
8GnL<	8ggn 8bb- 8ccc#X 8eeenL	sf
8GGnJ)	8gg 8bb- 8ccc# 8eee	.
8r	8gg 8bb- 8ccc# 8eee	.
(8GG	8gg 8bb- 8ccc# 8eeeJ	.
8GG#L	8gg# 8bbn 8ddd 8fffnL	sf
8GGG#J)	8gg# 8bb 8ddd 8fff	.
8r	8gg# 8bb 8ddd 8fff	.
(8GGG#	8gg# 8bb 8ddd 8fffJ	.
!!LO:LB:g=original
=80	=80	=80
8AAAL	16ccc#XLL	.
.	16eee	.
8AAJ)	16ccc#	.
.	16aaJJ	.
8r	16fffnLL	.
.	16ddd	.
(8GG#	16fff	.
.	16dddJJ	.
8AAL>	16bbnLL	.
.	16ddd	.
8AJ)	16bb	.
.	16gg#JJ	.
8r	16ffnLL	.
.	16gg#	.
(8GGG#	16bb	.
.	16dddJJ	.
=81	=81	=81
8AAAL	16ccc#LL	.
.	16aa	.
8AAJ)	16ee	.
.	16cc#JJ	.
8r	16ffnLL	.
.	16dd	.
(8GG#	16b	.
.	16g#JJ	.
8AAL>	16fnLL	.
.	16d	.
8AJ)	16B	.
.	16G#JJ	.
8r	16FnLL	.
.	16G#	.
(8GGG#	16B	.
.	16dJJ	.
=82	=82	=82
8AAAL	16c#LL	<
.	16A	.
8AAJ)	16c#	.
.	16eJJ	.
8r	16aLL	.
.	16e	.
(8GGG#	16c#	.
.	16AJJ	.
8AAAL	16eLL	.
.	16c#	.
8AAJ)	16A	.
.	16EJJ	.
*	*clefF4	*
8r	16c#LL	.
.	16A	.
((8GGG# 8GG#	16E	.
.	16C#JJ	.
*	*clefG2	*
!!LO:LB:g=original
=83	=83	=83
*	*^	*
[2AAA [2AA))	2r	2.ryy	.
4.AAA;] 4.AA]	4r;	.	.
.	8r	8ryy	pp
8r	(8f#X	8A [8d	.
=84	=84	=84	=84
4r	8gL	4B 4d]	.
.	8bJ)	.	.
8r	4r	2ryy	pp
(8D/	.	.	.
8BBL	4r	.	.
8GGJ)	.	.	.
4r	8r	8ryy	.
.	(8f#	8A [8d	.
=85	=85	=85	=85
4r	8gL	4B 4d]	.
.	8bJ)	.	.
8r	4r	2.ryy	.
(16DLL	.	.	.
16CnJJ	.	.	.
16BBLL	4r	.	.
16AAJ	.	.	.
8GGJ)	.	.	.
4r	8r	.	.
.	(8bL<	.	<
*clefG2	*	*	*
*	*v	*v	*
=86	=86	=86
8r	8a'J)	.
(16gLL	(8ddL	.
16f#JJ)	.	.
8e'L	8cc#X'J)	.
(16f#L	(8ggL	.
16eJJ)	.	.
8d'L	8ff#'J)	.
(16eL	(8bbL	.
16dJJ)	.	.
8c#'L	8aa'J)	.
*	*8va	*
(16dL	[8eee	f
16c#JJ)	.	.
!!LO:LB:g=original
=87	=87	=87
*^	*^	*
8r	2B	2.ryy	(16eeeLL]	>
.	.	.	16ddd	.
[[<8d	.	.	16ccc#	.
.	.	.	16bbJJ	.
[[<8e	.	.	16aaLL	.
.	.	.	16gg#	.
[8g#	.	.	16ddd	.
.	.	.	16gg#JJ)	.
[4A; 4d;]] 4e;]] 4g#;]	2ryy	.	4bb;>	] p
.	.	.	(16qccc#LL	.
.	.	.	16qbb	.
.	.	.	16qaa#JJ	.
.	.	.	8qbbL	.
.	.	.	8qccc#J	.
8A;] 8c#; 8e; 8a;	.	8ryy	8aan)\;>	.
*	*	*	*X8va	*
8r	.	[8d (8f#	(8A	pp
*v	*v	*	*	*
*clefF4	*	*	*
=88	=88	=88	=88
8r	8gL	4B 4d])	.
(16DLL	8bJ)	.	.
16CnJJ	.	.	.
16BBLL	8r	2.ryy	.
16AAJ	.	.	.
8GGJ)	(8A# 8a#	.	<
8r	8B 8bL	.	.
(16F#LL	8d) 8ddJ	.	.
16EJJ	.	.	.
16DLL<	8r	.	.
16C#J	.	.	.
8BBJ)	(8c# 8cc#	.	.
=89	=89	=89	=89
*^	*	*	*
4.ryy	8r	8d 8ddL	2.ryy	.
.	(16ALL	8f#) 8ff#J	.	.
.	16GJJ	.	.	.
.	32F#LLL	8r	.	.
.	32EJ	.	.	.
.	16DJ)	.	.	.
8G	8GGJ	(8b/	.	p
(4F#	2AA	4d)	.	.
.	.	(<f#8q/	.	!.
4G)	.	()8.eL	4c#	.
.	.	16dJk)	.	.
*	*	*v	*v	*
=90	=90	=90	=90
4F#	4BB	4d	.
4r	2.ryy	4r	.
2r	.	4r	.
.	.	8r	.
!	!	!	!LO:DY:cj
.	.	(8ff# 8dd#	ff
*v	*v	*	*
*clefG2	*	*
!!LO:LB:g=original
=91	=91	=91
*^	*^	*
8r	2r	4ryy	8ee 8ggL	.
(16bLL	.	.	8gg 8bbJ)	.
16aJJ	.	.	.	.
*	*	*clefF4	*clefF4	*
*	*	*	*Xbrackettup	*
16gLL	.	4ryy	24r	.
.	.	.	(24BLL	.
16f#J)	.	.	.	.
.	.	.	24A	.
8e'J	.	.	24G	.
.	.	.	24F#	.
.	.	.	24EJJ)	.
*v	*v	*	*	*
*clefF4	*	*	*
*^	*	*	*
(4FF#	2AAA	4ryy	(4DSSs	.
4GG)	.	8F#L	4C#	.
.	.	8EJ)	.	.
*v	*v	*	*	*
*	*v	*v	*
=92	=92	=92
16r	4D	.
16DDLL	.	.
16FF#	.	.
16AAJJ	.	.
16Dz>LL	8r	.
16DD	.	.
16Cn	(8F#	.
16DDJJ	.	.
16BBLL	8GL	.
16DD	.	.
16GG	8BJ)	.
16DDJJ	.	.
*	*clefG2	*
16EELL	(8dL	.
16DD	.	.
16FF#	8cnJ	.
16DDJJ	.	.
=93	=93	=93
16GGLL	8BL	.
16DD	.	.
16BB	8GJ)	.
16DDJJ	.	.
16F#z>LL	8r	.
16FF#	.	.
16E	(8A#	.
16FF#JJ	.	.
16DLL	8BL	.
16FF#	.	.
16BB	8dJ)	.
16FF#JJ	.	.
16GG#z>LL	(8f#L	.
16FF#	.	.
16AA#	8eJ	.
16FF#JJ	.	.
=94	=94	=94
16BBLL	8dL	.
16FF#	.	.
16D	8BJ)	.
16FF#JJ	.	.
16Anz>LL>	8r	.
16AAn	.	.
16G	(8c#	.
16AAJJ	.	.
16F#LL	8dL	.
16AA	.	.
16D	8f#J)	.
16AAJJ	.	.
16BBz>LL	8a (8aaL	.
16AA	.	.
16C#	8g 8ggJ	.
16AAJJ	.	.
!!LO:LB:g=original
=95	=95	=95
16DLL	8f# 8ff#L	.
16AA	.	.
16F#	8ddJ)	.
16AAJJ	.	.
16ALL>	8r	.
16AA	.	.
!	!LO:DY:rj	!
16G	(8c#z	.
16AAJJ	.	.
16F#LL	8dL	.
16AA	.	.
16D	8f#J)	.
16AAJJ	.	.
16BBLL	8az (8aazL	.
16AA	.	.
16C#	8g 8ggJ	.
16AAJJ	.	.
=96	=96	=96
16DLL	8f#z 8ff#zL	.
16AA	.	.
16D	8ddJ)	.
16AAJJ	.	.
16D#LL	8b' 8bb'L	.
16AA	.	.
16D#	8a' 8aa'J	.
16AAJJ	.	.
16ELL	8gz (8ggzL	.
16AA	.	.
16E	8eeJ)	.
16AAJJ	.	.
16E#LL	8cc#' 8ccc#'L	.
16AA	.	.
16E#	8b' 8bb'J	.
16AAJJ	.	.
=97	=97	=97
16F#LL	8az (8aazL	.
16AA	.	.
16F#	8ff#J)	.
16AAJJ	.	.
16F#LL	8dd' 8ddd'L	.
16AA	.	.
16F#	8ccn' 8cccn'J	.
16AAJJ	.	.
16GLL>	8bz (8bbzL	.
16AA	.	.
16G	8ggJ)	.
16AAJJ	.	.
16G#LL>	8ee' 8eee'L	.
16AA	.	.
16G#	8dd' 8ddd'J	.
16AAJJ	.	.
!!LO:LB:g=original
=98	=98	=98
*^	*	*
!	!	!	!LO:DY:rj
(1G	[1AA; [1An;	1dd; 1ddd;	ff
.	.	(ccc#8qL<	.
.	.	eee8q	.
.	.	ddd8qJ	.
.	.	ccc#32qLLL<	.
.	.	eee32q	.
.	.	aa32q	.
.	.	ccc#32q	.
.	.	gg32q	.
.	.	aa32q	.
.	.	ee32q	.
.	.	gg32q	.
.	.	cc#32q	.
.	.	ee32q	.
.	.	a32q	.
.	.	cc#32q	.
.	.	g32q	.
.	.	a32q	.
.	.	e32q	.
.	.	g32qJJJ)	.
=99	=99	=99	=99
2A_)	2AA_ [2G	[2c#	.
4.A]	4.AA;] 4.G]	4.c#;]	.
8ryy	(<8FF#\	8r	.
=100	=100	=100	=100
8ryy	8GGL	8re	.
(8D 8dL	8BBJ)	4.ryy	.
8B	4rBB	.	.
8GJ)	.	.	.
2ryy	4r	2re	.
.	8r	.	.
.	(8F#	.	.
*v	*v	*	*
=101	=101	=101
8GL	8r	.
8B-J)	(8d 8ddL	.
4r	8b-	.
.	8gJ)	.
4r	4r	.
8r	8r	.
(8GG [8G	[8B- 8d [8b-X	.
=102	=102	=102
8Cn) 8G]	8B-] 8e- 8b-]	.
4C 4G	4B- 4e- 4b-	.
8C (8G	((8B- [8e- 8b-	.
8FFn 8Fn)	8A- 8e-] 8a-))	.
4FF 4F	4A- 4e- 4a-	.
(<8FF [8F	[8A- 8e- [8a-	.
!!LO:LB:g=original
=103	=103	=103
8BB-/ 8F/])	8A-] 8d 8a-]	.
4BB-/ 4Fn/	4A- 4d 4a-	.
[8BB-/ (>8F/	8A- [8d 8a-	.
8BB-] 8En)	8G 8d] 8g	.
4BB- 4E	4G 4d 4g	.
(8BB- [8E	[8G 8d 8g	.
=104	=104	=104
8AAn) 8E]	8G] 8c# 8g	.
4AA 4E	4G 4c# 4g	.
[8AA (>8E	8G 8c# 8g	.
8AA] 8F#X)	8An 8d 8f#	.
4AA 4F#	4A 4d 4f#	.
[8AA (>8F#	8A [8d 8f#	.
=105	=105	=105
8AA/] 8G/)	8Bn 8d] 8e	.
4AA/ 4G/	4B 4d 4e	.
[8AA/ (>8G/	8B 8d 8e	.
8AA/] 8A/)	8G 8c# 8e	.
4AA/ 4A/	4G 4c# 4e	.
8AA/ 8A/	8G 8c# 8e	.
*	*clefF4	*
=106	=106	=106
*^	*	*
*	*	*	*^
!	!	!	!LO:DY:b=2:rj	!LO:DY:c:t=%s sempre legato
4r	[1DD [>1D	16r	fp	p
*	*	*	*v	*v
.	.	16ELL	.
.	.	16F#	.
.	.	16GJJ	.
8r	.	16G#LL	.
.	.	16A	.
(8AAL	.	16B-	.
.	.	16BnJJ	.
*	*	*clefG2	*
8BB	.	16cnLL	.
.	.	16c#	.
8GGJ)	.	16d	.
.	.	16d#JJ	.
8r	.	16eLL	.
.	.	16fn	.
(8GG	.	16f#	.
.	.	16gJJ	.
!!LO:LB:g=original
=107	=107	=107	=107
1DD] 1D]	8AAL>	16g#LL<	.
.	.	16a	.
.	8FF#J)	16b-	.
.	.	16bnJJ	.
.	8rD	16ccnLL	.
.	.	16cc#	.
.	(8FF#L>	16dd	.
.	.	16dd#JJ	.
.	8GG	16eeLL	.
.	.	16ffn	.
.	8EEJ)	16ff#	.
.	.	16ggJJ	.
!	!	!LO:TUP:r=8	!
.	8rD	(24gg#LL	.
.	.	24aa	.
.	.	24bb-J	.
.	(>8EE/	24bbnL	.
.	.	24cccn	.
.	.	24ccc#JJ)	.
=108	=108	=108	=108
8FF#L	[1DD [>1D	16dddLL	.
.	.	16cccn	.
8DDJ)	.	16bb	.
.	.	16bb-JJ	.
8r	.	16aaLL	.
.	.	16gg#	.
(<8AAL	.	16ggn	.
.	.	16ff#JJ	.
8BBn	.	16ffnLL	.
.	.	16ee	.
8GGJ)	.	16ee-	.
.	.	16ddJJ	.
8r	.	16cc#LL	.
.	.	16ccn	.
(8GG	.	16b	.
.	.	16b-JJ	.
=109	=109	=109	=109
1DD] 1D]	8AAL>	16aLL<	.
.	.	16g#	.
.	8FF#J)	16gn	.
.	.	16f#JJ	.
.	8rD	16fnLL<	.
.	.	16e	.
.	(8FF#L>	16e-	.
.	.	16dJJ	.
*	*	*clefF4	*
.	8GG	16c#LL	.
.	.	16B	.
.	8EEJ)	16A	.
.	.	16GJJ	.
.	8rD	16F#XLL	.
.	.	16En	.
.	(<8EE/	16D	.
.	.	16C#JJ	.
*	*	*clefG2	*
!!LO:LB:g=original
=110	=110	=110	=110
[1D	8FF#L>	8r	.
.	8DDJ)	16F#LL	.
.	.	16AJJ	.
.	8rGG	16dLL	.
.	.	16f#	.
.	(8FF#L>	16a	.
.	.	16dJJ	.
.	8GG	16c#LL	.
.	.	16A	.
.	8DDJ)	16c#	.
.	.	16eJJ	.
.	8rGG	16gLL	.
.	.	16a	.
.	(8GG/	16cc#	.
.	.	16aJJ	.
=111	=111	=111	=111
1D_	8FF#L>	16ddLL	.
.	.	16d	.
.	8DDJ)	16f#	.
.	.	16aJJ	.
.	8rGG	16ddLL	.
.	.	16ff#	.
.	(8FF#L>	16aa	.
.	.	16ddJJ	.
.	8GG	16cc#LL	.
.	.	16a	.
.	8DDJ)	16cc#	.
.	.	16eeJJ	.
.	8rGG	16ggLL	.
.	.	16aa	.
.	(<8GG/	16ccc#	.
.	.	16aaJJ	.
=112	=112	=112	=112
4D/]	8FF#L	16dddLL	.
.	.	16aa	.
.	8DDJ)	16ff#	.
.	.	16ddJJ	.
4rEE	4ryy	16aLL	.
.	.	16dd	.
.	.	16a	.
.	.	16f#JJ	.
4rEE	4ryy	16dLL	.
.	.	16A<	.
.	.	16F#<	.
.	.	16A<JJ	.
16DLL	4ryy	4r	.
16AA	.	.	.
16FF#	.	.	.
16AAJJ	.	.	.
*v	*v	*	*
=113	=113	=113
4DD	2r	.
4r	.	.
4r	4r	.
8r;	8r;	.
==	==	==
*-	*-	*-
!!!RDF**kern: > = above
!!!RDF**kern: < = below
!!!verovio: beamFrenchStyle
!!!LOR: Durand 1915, plates 9327/9328, Paul Dukas, ed.
!!!PED: Dukas, Paul
!!!URL-vhv: https://verovio.humdrum.org/?file=beethoven/sonatas/sonata07-4.krn
!!!URL-pdf: https://github.com/craigsapp/beethoven-piano-sonatas/blob/master/reference-edition/sonata07-4.pdf
!!!ENC: Craig Stuart Sapp
!!!END: 2008/10/29
!!!EED: Craig Stuart Sapp
!!!EEV: 2023/04/08
